packages/kaspersky-hexa-ui-icons/src/iconsSVGs/28x20/FlagLk.svg

<svg width="28" height="20" viewBox="0 0 28 20" fill="none" xmlns="http://www.w3.org/2000/svg">
<g clip-path="url(#clip0_5138_1314)">
<rect width="28" height="20" rx="2" fill="white"/>
<mask id="mask0_5138_1314" style="mask-type:luminance" maskUnits="userSpaceOnUse" x="0" y="0" width="28" height="20">
<rect width="28" height="20" rx="2" fill="white"/>
</mask>
<g mask="url(#mask0_5138_1314)">
<rect width="28" height="20" fill="#FFBF19"/>
<path fill-rule="evenodd" clip-rule="evenodd" d="M10.6667 1.33333H25.3333C26.0697 1.33333 26.6667 1.93029 26.6667 2.66667V17.3333C26.6667 18.0697 26.0697 18.6667 25.3333 18.6667H10.6667V1.33333Z" fill="#A52531"/>
<path d="M1.33333 2.66667C1.33333 1.93029 1.93029 1.33333 2.66667 1.33333H5.33333V18.6667H2.66667C1.93029 18.6667 1.33333 18.0697 1.33333 17.3333V2.66667Z" fill="#03664F"/>
<rect x="5.33333" y="1.33333" width="4" height="17.3333" rx="0.666667" fill="#FF6816"/>
<path fill-rule="evenodd" clip-rule="evenodd" d="M12.6667 4C13.0349 4 13.3333 3.70152 13.3333 3.33333C13.3333 2.96514 13.0349 2.66667 12.6667 2.66667C12.2985 2.66667 12 2.96514 12 3.33333C12 3.70152 12.2985 4 12.6667 4ZM24.6667 4C24.2985 4 24 3.70152 24 3.33333C24 2.96514 24.2985 2.66667 24.6667 2.66667C25.0349 2.66667 25.3333 2.96514 25.3333 3.33333C25.3333 3.70152 25.0349 4 24.6667 4ZM24 16.6667C24 16.2985 24.2985 16 24.6667 16C25.0349 16 25.3333 16.2985 25.3333 16.6667C25.3333 17.0349 25.0349 17.3333 24.6667 17.3333C24.2985 17.3333 24 17.0349 24 16.6667ZM12.6667 16C13.0349 16 13.3333 16.2985 13.3333 16.6667C13.3333 17.0349 13.0349 17.3333 12.6667 17.3333C12.2985 17.3333 12 17.0349 12 16.6667C12 16.2985 12.2985 16 12.6667 16Z" fill="#FFBF18"/>
<path fill-rule="evenodd" clip-rule="evenodd" d="M16 12.5736C16 12.2568 15.7432 12 15.4264 12C15.3648 12 15.3037 11.9902 15.2456 11.9694C14.8599 11.8315 13.3333 11.2491 13.3333 10.6667C13.3333 10.3018 13.533 9.93698 13.7138 9.68141C13.8712 9.45888 13.9298 9.16971 13.8332 8.91482C13.6066 8.31685 13.2397 7.22834 13.3333 6.66667C13.3832 6.36752 13.5824 6.10559 13.8122 5.89488C14.1678 5.56879 14.6667 5.87697 14.6667 6.35949V8.92131C14.6667 9.17382 14.8093 9.40467 15.0352 9.51759L15.7117 9.85585C15.8839 9.94193 16.0918 9.90819 16.2279 9.77208C16.4438 9.55623 16.3847 9.19236 16.1117 9.05585L15.3333 8.66667V8C15.6655 8 15.7712 7.55225 15.4741 7.40371L15.3333 7.33333V6.66667H16.3905C16.5673 6.66667 16.7369 6.59643 16.8619 6.4714L17.1381 6.19526C17.2631 6.07024 17.4327 6 17.6095 6H18.2546C18.5072 6 18.738 6.14267 18.8509 6.36852L19.2098 7.08634C19.2889 7.24449 19.3019 7.42757 19.246 7.5953L18.9592 8.45585C18.8153 8.88753 19.1366 9.33333 19.5916 9.33333H21.7832C21.922 9.33333 22.0551 9.2782 22.1533 9.18006C22.4058 8.92749 22.3367 8.50171 22.0173 8.34197L21.4741 8.07038C21.3815 8.0241 21.2795 8 21.176 8H20.6667C20.2985 8 20 7.70152 20 7.33333V6.94281C20 6.766 20.0702 6.59643 20.1953 6.4714L20.6667 6V6.66667C20.6667 7.03486 20.9651 7.33333 21.3333 7.33333H22.2546C22.5072 7.33333 22.738 7.476 22.8509 7.70186L23.2799 8.55974C23.3152 8.63046 23.3378 8.70657 23.3449 8.78531C23.3756 9.12087 23.4487 10.0897 23.3333 10.6667C23.2398 11.1342 22.978 11.5669 22.8117 11.8061C22.7223 11.9347 22.6667 12.0858 22.6667 12.2424V14.1574C22.6667 14.4386 22.4387 14.6667 22.1574 14.6667C21.7788 14.6667 21.5325 14.2682 21.7019 13.9296L21.9296 13.4741C21.9739 13.3855 21.9739 13.2812 21.9296 13.1926L21.8981 13.1296C21.7574 12.8482 21.3333 12.9483 21.3333 13.263C21.3333 13.3092 21.3226 13.3549 21.3019 13.3963L20.8315 14.337C20.7305 14.5391 20.524 14.6667 20.2981 14.6667C19.8549 14.6667 19.5666 14.2002 19.7648 13.8037L19.9296 13.4741C19.9759 13.3815 20 13.2795 20 13.176V12.6667C20 12.2985 19.7015 12 19.3333 12H18C17.6318 12 17.3333 12.2985 17.3333 12.6667V13.176C17.3333 13.2795 17.3092 13.3815 17.263 13.4741L16.8315 14.337C16.7305 14.5391 16.524 14.6667 16.2981 14.6667C15.8549 14.6667 15.5666 14.2002 15.7648 13.8037L15.9296 13.4741C15.9759 13.3815 16 13.2795 16 13.176V12.5736Z" fill="#FFBF18"/>
</g>
</g>
<defs>
<clipPath id="clip0_5138_1314">
<rect width="28" height="20" fill="white"/>
</clipPath>
</defs>
</svg>

<svg xmlns="http://www.w3.org/2000/svg" width="28" height="20" fill="none" viewBox="0 0 28 20"><g clip-path="url(#a)"><rect width="28" height="20" fill="#fff" rx="2"/><mask id="b" width="28" height="20" x="0" y="0" maskUnits="userSpaceOnUse" style="mask-type:luminance"><rect width="28" height="20" fill="#fff" rx="2"/></mask><g mask="url(#b)"><path fill="#ffbf19" d="M0 0h28v20H0z"/><path fill="#a52531" fill-rule="evenodd" d="M10.6667 1.3333h14.6666c.7364 0 1.3334.597 1.3334 1.3334v14.6666c0 .7364-.597 1.3334-1.3334 1.3334H10.6667z" clip-rule="evenodd"/><path fill="#03664f" d="M1.3333 2.6667c0-.7364.597-1.3334 1.3334-1.3334h2.6666v17.3334H2.6667c-.7364 0-1.3334-.597-1.3334-1.3334z"/><rect width="4" height="17" x="5" y="1" fill="#ff6816" rx="1"/><path fill="#ffbf18" fill-rule="evenodd" d="M12.667 4a.667.667 0 0 0 .667-.667.667.667 0 1 0-1.333 0c0 .368.299.667.667.667m12 0a.667.667 0 1 1 0-1.333.667.667 0 0 1 0 1.333M24 16.667a.667.667 0 1 1 1.333 0 .667.667 0 0 1-1.333 0M12.667 16a.667.667 0 1 1 0 1.333.667.667 0 0 1 0-1.333M16 12.574a.574.574 0 0 0-.574-.574.54.54 0 0 1-.181-.031c-.386-.138-1.912-.72-1.912-1.303 0-.365.2-.73.381-.985.157-.222.216-.512.119-.767-.227-.598-.593-1.686-.5-2.248.05-.299.249-.561.479-.772.356-.326.855-.018.855.465v2.562c0 .253.143.483.369.596l.677.338a.447.447 0 0 0 .516-.084c.216-.216.157-.58-.116-.716l-.778-.389V8c.332 0 .438-.448.141-.596l-.141-.07v-.667h1.057a.667.667 0 0 0 .471-.195l.276-.276A.667.667 0 0 1 17.61 6h.645a.667.667 0 0 1 .596.369l.359.718a.667.667 0 0 1 .036.509l-.287.861c-.144.432.177.877.632.877h2.192a.524.524 0 0 0 .37-.153c.253-.253.183-.678-.136-.838l-.543-.272A.67.67 0 0 0 21.176 8h-.509A.667.667 0 0 1 20 7.333v-.39a.666.666 0 0 1 .195-.471L20.667 6v.667c0 .368.298.667.667.667h.921a.667.667 0 0 1 .596.369l.429.858a.63.63 0 0 1 .065.226c.031.336.104 1.304-.012 1.881-.093.468-.355.9-.522 1.139-.089.129-.145.28-.145.436v1.915a.509.509 0 0 1-.509.509c-.379 0-.625-.398-.455-.737l.228-.455a.315.315 0 0 0 0-.281l-.031-.063c-.141-.281-.565-.181-.565.133a.3.3 0 0 1-.031.133l-.47.941a.596.596 0 0 1-.533.33c-.443 0-.731-.466-.533-.863l.165-.33a.67.67 0 0 0 .068-.299v-.509a.667.667 0 0 0-.667-.667H18a.667.667 0 0 0-.667.667v.509a.67.67 0 0 1-.07.298l-.431.863a.596.596 0 0 1-.533.33c-.443 0-.731-.466-.533-.863l.165-.33a.67.67 0 0 0 .069-.298z" clip-rule="evenodd"/></g></g><defs><clipPath id="a"><path fill="#fff" d="M0 0h28v20H0z"/></clipPath></defs></svg>
